X:423
T:Le Canal En Octobre
Z:Jack Campin, http://www.campin.me.uk/
F:Jack Campin's Nine-Note Tunebook
% last edit 03-02-2013
M:4/4
L:1/8
Q:1/4=120
C:Frederic Paris
G:Schottische
Z:Steve Mansfield
K:G
|:DGA|B3c cBAG|B3c cBAG|EFGB A3G|FGEF D2
   GA|B3c cBAG|B3c cBAG|EFGB A3G|G4   z:|
|:zdd|d3c cBAG|d3c cBAG|EFGB A3G|FGEF D2
   Bc|d3c cBAG|d3c cBAG|EFGB A3G|G4   z:|

